icons/nodal.svg

<?xml version="1.0" encoding="UTF-8" standalone="no"?>
<svg width="256px" height="257px" viewBox="0 0 256 257" version="1.1" xmlns="http://www.w3.org/2000/svg" xmlns:xlink="http://www.w3.org/1999/xlink" preserveAspectRatio="xMidYMid">
	<g>
		<path d="M192.0834,0.0004 L127.8404,43.1804 L128.0734,44.5784 L190.4794,86.1814 L192.0834,86.2214 L192.8864,84.8624 L193.0414,1.8874 L192.0834,0.0004 Z" fill="#138EE2"></path>
		<path d="M62.9208,174.2287 L62.7088,252.4397 L64.3328,256.3327 L128.2578,213.9247 L127.8148,211.6427 L69.0508,172.3257 L64.3328,171.1107 L62.9208,174.2287 Z" fill="#00BDFF"></path>
		<path d="M192.0834,0.0004 L192.0834,86.2214 L64.9154,0.9984 L64.1254,4.5364 L251.0494,212.4884 L255.9994,214.3044 L255.9994,42.7774 L192.0834,0.0004 Z" fill="#00BDFF"></path>
		<path d="M0,42.9439 L0,213.7219 L64.333,256.3329 L64.333,171.1109 L192.083,256.6659 L255.667,214.0549 L64.915,0.9989 L0,42.9439 Z" fill="#00E1FF"></path>
	</g>
</svg>

<svg xmlns="http://www.w3.org/2000/svg" viewBox="0 0 255.999 256.666">
  <path fill="#138ee2" d="M192.083 0 127.84 43.18l.233 1.398 62.406 41.603 1.604.04.803-1.359.155-82.975z"/>
  <path fill="#00bdff" d="m62.92 174.228-.211 78.211 1.624 3.893 63.925-42.408-.443-2.282-58.764-39.317-4.718-1.215zM192.083 0v86.221L64.915.998l-.79 3.538L251.05 212.488l4.95 1.816V42.777z"/>
  <path fill="#00e1ff" d="M0 42.944V213.72l64.333 42.611V171.11l127.75 85.555 63.584-42.61L64.915.999z"/>
</svg>
